X: 4334
T: AH! WITH PLEASURE. (Martha.)
%R: air, march
B: James Kerr "Merry Melodies" v.4 p.35 #334
Z: 2016 John Chambers <jc:trillian.mit.edu>
M: 2/4
L: 1/8
K: D
[|\
Fz Gz | Az d2 | (3cBA (3GAB | A2 Fz |\
(3ABA (3GFE | F2 Az | ^Gz Bz | A2 A,z |
Fz Gz | Az d2 | (3cBA (3GAB | A2 Fz |:\
Gz Az | (3Bdc (3BAG | |[1 Fz Ez | A4 :|[2 Fz Ez | D4 |]

%%sep 1 1 500
%%sep 1 1 500

